X: 6
T: The Lilting Banshee
R: jig
M: 6/8
L: 1/8
K: Ador
G|EAA EAA|~B3 G2A|Bee edB|de^f gag|
eaa age|dBG G2A|Bee dBG|BAA A2:|
|:d|eaa age|dBG G2A|Bee edB|de^f gag|
eaa age|dBG G2A|Bee dBG|BAA A2:|


Tune 60	Setting 25896

